outputs/icons/hardware/phone_iphone_round.svg

<svg width="1200" height="1200" viewBox="0 0 1200 1200" fill="none" xmlns="http://www.w3.org/2000/svg"><g clip-path="url(#clip0_238_1275)"><path d="M775 50H375C306 50 250 106 250 175V1025C250 1094 306 1150 375 1150H775C844 1150 900 1094 900 1025V175C900 106 844 50 775 50ZM575 1100C533.5 1100 500 1066.5 500 1025C500 983.5 533.5 950 575 950C616.5 950 650 983.5 650 1025C650 1066.5 616.5 1100 575 1100ZM800 900H350V200H800V900Z" fill="black"/></g><defs><clipPath id="clip0_238_1275"><path width="24" fill="white" d="M0 0H1200V1200H0V0z"/></clipPath></defs></svg>

<svg xmlns="http://www.w3.org/2000/svg" width="1200" height="1200" fill="none"><g clip-path="url(#a)"><path fill="#000" d="M775 50H375c-69 0-125 56-125 125v850c0 69 56 125 125 125h400c69 0 125-56 125-125V175c0-69-56-125-125-125M575 1100c-41.5 0-75-33.5-75-75s33.5-75 75-75 75 33.5 75 75-33.5 75-75 75m225-200H350V200h450z"/></g><defs><clipPath id="a"><path fill="#fff" d="M0 0h1200v1200H0z"/></clipPath></defs></svg>
